flaticon/emoticons/smug-1.svg

<svg xmlns="http://www.w3.org/2000/svg" width="32" height="32" viewBox="0 0 24 24">
    <path d="M15.609375 16.269531L8.285156 16.269531C8.0625 16.269531 7.878906 16.453125 7.878906 16.679688 7.878906 18.921875 9.703125 20.746094 11.945312 20.746094 14.191406 20.746094 16.015625 18.921875 16.015625 16.679688 16.015625 16.453125 15.832031 16.269531 15.609375 16.269531zM14.960938 17.902344C14.953125 17.902344 14.949219 17.898438 14.941406 17.898438L13.574219 17.898438 13.574219 17.085938 15.171875 17.085938C15.136719 17.371094 15.066406 17.644531 14.960938 17.902344zM8.933594 17.902344C8.828125 17.644531 8.757812 17.371094 8.722656 17.085938L10.320312 17.085938 10.320312 17.898438 8.953125 17.898438C8.945312 17.898438 8.941406 17.902344 8.933594 17.902344zM11.132812 17.085938L12.761719 17.085938 12.761719 17.898438 11.132812 17.898438zM9.410156 18.710938L10.320312 18.710938 10.320312 19.492188C9.972656 19.289062 9.664062 19.023438 9.410156 18.710938zM11.132812 19.824219L11.132812 18.710938 12.761719 18.710938 12.761719 19.824219C12.5 19.894531 12.230469 19.933594 11.945312 19.933594 11.664062 19.933594 11.394531 19.894531 11.132812 19.824219zM13.574219 19.492188L13.574219 18.710938 14.484375 18.710938C14.230469 19.023438 13.921875 19.289062 13.574219 19.492188zM6.519531 10.863281C6.359375 10.703125 6.101562 10.703125 5.945312 10.863281L4.664062 12.144531C4.503906 12.300781 4.503906 12.558594 4.664062 12.71875 4.742188 12.796875 4.847656 12.835938 4.953125 12.835938 5.054688 12.835938 5.160156 12.796875 5.238281 12.71875L6.519531 11.4375C6.679688 11.277344 6.679688 11.023438 6.519531 10.863281zM6.371094 13.570312C6.449219 13.648438 6.554688 13.691406 6.65625 13.691406 6.761719 13.691406 6.867188 13.648438 6.945312 13.570312L9.078125 11.4375C9.238281 11.277344 9.238281 11.023438 9.078125 10.863281 8.917969 10.703125 8.660156 10.703125 8.503906 10.863281L6.371094 12.996094C6.210938 13.15625 6.210938 13.410156 6.371094 13.570312zM14.335938 12.835938C14.4375 12.835938 14.542969 12.796875 14.621094 12.71875L15.902344 11.4375C16.0625 11.277344 16.0625 11.023438 15.902344 10.863281 15.742188 10.703125 15.484375 10.703125 15.328125 10.863281L14.046875 12.144531C13.886719 12.300781 13.886719 12.558594 14.046875 12.71875 14.125 12.796875 14.230469 12.835938 14.335938 12.835938zM15.753906 13.570312C15.832031 13.648438 15.9375 13.691406 16.039062 13.691406 16.144531 13.691406 16.25 13.648438 16.328125 13.570312L18.460938 11.4375C18.621094 11.277344 18.621094 11.023438 18.460938 10.863281 18.300781 10.703125 18.042969 10.703125 17.886719 10.863281L15.753906 12.996094C15.59375 13.15625 15.59375 13.410156 15.753906 13.570312zM15.753906 13.570312"/>
    <path d="M 23.753906 17.757812 C 22.902344 15.84375 22.632812 12.222656 22.550781 10.230469 C 22.46875 8.351562 21.910156 6.585938 20.929688 5.125 C 19.175781 2.515625 17.230469 1.449219 15.921875 0.875 C 13.253906 -0.292969 10.191406 -0.292969 7.523438 0.875 C 5.980469 1.550781 4.21875 2.535156 2.828125 4.707031 C 1.894531 6.164062 1.382812 7.921875 1.34375 9.785156 C 1.304688 11.929688 1.105469 15.824219 0.238281 17.828125 C -0.0390625 18.46875 0.25 19.214844 0.882812 19.496094 C 1.25 19.65625 1.945312 19.753906 2.816406 19.859375 C 2.875 19.867188 2.925781 19.875 2.980469 19.882812 L 2.980469 20.339844 C 2.980469 21.421875 3.933594 22.371094 5.019531 22.371094 L 6.039062 22.371094 L 6.039062 23.0625 C 6.039062 23.578125 6.460938 24 6.976562 24 L 16.492188 24 C 17.007812 24 17.429688 23.578125 17.429688 23.0625 L 17.429688 22.371094 L 18.765625 22.371094 C 19.871094 22.371094 20.875 21.402344 20.875 20.339844 L 20.875 19.867188 C 21.097656 19.832031 21.324219 19.796875 21.550781 19.765625 C 22.140625 19.683594 22.695312 19.605469 23.058594 19.464844 C 23.382812 19.335938 23.636719 19.089844 23.769531 18.765625 C 23.90625 18.441406 23.898438 18.082031 23.753906 17.757812 Z M 20.082031 11.332031 C 20.058594 12.644531 19.828125 13.976562 18.128906 14.160156 C 16.03125 14.386719 14.527344 14.109375 13.660156 13.335938 C 13.132812 12.859375 12.84375 12.1875 12.800781 11.328125 C 15.066406 10.128906 17.8125 10.128906 20.082031 11.332031 Z M 12.183594 10.738281 C 12.183594 10.742188 12.179688 10.742188 12.179688 10.742188 L 11.554688 10.742188 C 11.554688 10.742188 11.554688 10.742188 11.550781 10.738281 C 11.171875 10.523438 10.785156 10.339844 10.398438 10.183594 C 12.074219 9.574219 13.40625 8.726562 14.300781 7.675781 C 14.574219 8.179688 15.027344 8.933594 15.613281 9.660156 C 14.421875 9.773438 13.25 10.128906 12.183594 10.738281 Z M 10.9375 11.328125 C 10.890625 12.1875 10.601562 12.859375 10.074219 13.335938 C 9.210938 14.109375 7.707031 14.390625 5.605469 14.160156 C 3.988281 13.988281 3.816406 12.738281 3.8125 11.222656 C 6.035156 10.042969 8.605469 10.082031 10.9375 11.328125 Z M 16.613281 23.0625 C 16.613281 23.128906 16.558594 23.1875 16.492188 23.1875 L 6.976562 23.1875 C 6.90625 23.1875 6.851562 23.128906 6.851562 23.0625 L 6.851562 22.371094 L 16.613281 22.371094 Z M 18.769531 21.558594 L 5.019531 21.558594 C 4.386719 21.558594 3.792969 20.964844 3.792969 20.339844 L 3.804688 14.191406 C 4.175781 14.59375 4.722656 14.882812 5.519531 14.96875 C 6.011719 15.023438 6.480469 15.050781 6.917969 15.050781 C 8.554688 15.050781 9.796875 14.679688 10.617188 13.941406 C 11.273438 13.351562 11.648438 12.550781 11.734375 11.558594 L 12 11.558594 C 12.085938 12.550781 12.460938 13.351562 13.117188 13.941406 C 13.941406 14.679688 15.183594 15.050781 16.820312 15.050781 C 17.257812 15.050781 17.722656 15.023438 18.21875 14.96875 C 19.09375 14.875 19.679688 14.542969 20.078125 14.097656 L 20.0625 20.339844 C 20.0625 20.953125 19.421875 21.558594 18.769531 21.558594 Z M 23.019531 18.457031 C 22.972656 18.570312 22.878906 18.660156 22.761719 18.707031 C 22.492188 18.8125 21.953125 18.886719 21.4375 18.960938 C 21.25 18.984375 21.0625 19.011719 20.878906 19.042969 L 20.894531 11.316406 C 20.894531 11.238281 20.894531 11.160156 20.894531 11.09375 C 20.894531 10.949219 20.816406 10.8125 20.691406 10.742188 C 19.445312 10.027344 18.058594 9.660156 16.664062 9.625 C 15.5 8.390625 14.746094 6.761719 14.738281 6.746094 C 14.675781 6.613281 14.546875 6.523438 14.402344 6.511719 C 14.253906 6.496094 14.113281 6.566406 14.03125 6.6875 C 13.105469 8.0625 11.386719 9.121094 9.054688 9.757812 C 7.0625 9.304688 5.023438 9.59375 3.203125 10.628906 C 3.171875 10.648438 3.144531 10.671875 3.117188 10.695312 C 3.085938 10.730469 3.0625 10.769531 3.039062 10.808594 C 3.035156 10.820312 3.03125 10.832031 3.027344 10.84375 C 3.011719 10.886719 3 10.933594 3 10.980469 L 2.980469 19.0625 C 2.960938 19.058594 2.941406 19.058594 2.917969 19.054688 C 2.351562 18.984375 1.496094 18.875 1.214844 18.75 C 0.984375 18.648438 0.882812 18.386719 0.984375 18.152344 C 1.90625 16.019531 2.113281 12.003906 2.160156 9.800781 C 2.191406 8.085938 2.660156 6.476562 3.511719 5.144531 C 4.785156 3.15625 6.417969 2.246094 7.847656 1.621094 C 10.308594 0.542969 13.132812 0.542969 15.59375 1.621094 C 16.8125 2.152344 18.617188 3.144531 20.253906 5.578125 C 21.148438 6.917969 21.664062 8.535156 21.734375 10.265625 C 21.839844 12.765625 22.148438 16.152344 23.011719 18.089844 C 23.066406 18.207031 23.066406 18.339844 23.019531 18.457031 Z M 23.019531 18.457031"/>
</svg>

<svg xmlns="http://www.w3.org/2000/svg" width="32" height="32" viewBox="0 0 24 24">
    <path d="M15.61 16.27H8.284a.41.41 0 0 0-.406.41 4.071 4.071 0 0 0 4.066 4.066 4.072 4.072 0 0 0 4.07-4.066.41.41 0 0 0-.406-.41zm-.65 1.632c-.007 0-.01-.004-.019-.004h-1.367v-.812h1.598a3.177 3.177 0 0 1-.211.816zm-6.026 0a3.177 3.177 0 0 1-.211-.816h1.597v.812H8.953c-.008 0-.012.004-.02.004zm2.199-.816h1.629v.812h-1.63zM9.41 18.71h.91v.781a3.356 3.356 0 0 1-.91-.781zm1.723 1.113v-1.113h1.629v1.113a3.12 3.12 0 0 1-1.63 0zm2.441-.332v-.781h.91a3.356 3.356 0 0 1-.91.781zm0 0M6.52 10.863a.403.403 0 0 0-.575 0l-1.28 1.282a.403.403 0 0 0 .288.69c.102 0 .207-.038.285-.116l1.282-1.281a.403.403 0 0 0 0-.575zm0 0M6.371 13.57a.41.41 0 0 0 .285.121c.106 0 .211-.043.29-.12l2.132-2.133a.403.403 0 0 0 0-.575.403.403 0 0 0-.574 0L6.37 12.996a.403.403 0 0 0 0 .574zm0 0M14.336 12.836c.101 0 .207-.04.285-.117l1.281-1.281a.403.403 0 0 0 0-.575.403.403 0 0 0-.574 0l-1.281 1.282a.403.403 0 0 0 .289.69zm0 0M15.754 13.57a.41.41 0 0 0 .285.121c.106 0 .211-.043.29-.12l2.132-2.133a.403.403 0 0 0 0-.575.403.403 0 0 0-.574 0l-2.133 2.133a.403.403 0 0 0 0 .574zm0 0"/>
    <path d="M23.754 17.758c-.852-1.914-1.121-5.535-1.203-7.528-.082-1.878-.64-3.644-1.621-5.105-1.754-2.61-3.7-3.676-5.008-4.25a10.503 10.503 0 0 0-8.399 0c-1.543.676-3.304 1.66-4.695 3.832-.933 1.457-1.445 3.215-1.484 5.078-.04 2.145-.239 6.04-1.106 8.043-.277.64.012 1.387.645 1.668.367.16 1.062.258 1.933.363l.164.024v.457c0 1.082.954 2.031 2.04 2.031h1.02v.692a.94.94 0 0 0 .937.937h9.515a.94.94 0 0 0 .938-.938v-.69h1.336c1.105 0 2.109-.97 2.109-2.032v-.473c.223-.035.45-.07.676-.101.59-.082 1.144-.16 1.508-.301.324-.13.578-.375.71-.7a1.257 1.257 0 0 0-.015-1.007zm-3.672-6.426c-.023 1.313-.254 2.645-1.953 2.828-2.098.227-3.602-.05-4.469-.824-.527-.477-.816-1.149-.86-2.008a7.807 7.807 0 0 1 7.282.004zm-7.898-.594c0 .004-.004.004-.004.004h-.625l-.004-.004a9.713 9.713 0 0 0-1.153-.554c1.676-.61 3.008-1.457 3.903-2.508.273.504.726 1.258 1.312 1.984a8.53 8.53 0 0 0-3.43 1.078zm-1.246.59c-.047.86-.336 1.531-.864 2.008-.863.773-2.367 1.055-4.469.824-1.617-.172-1.789-1.422-1.793-2.937 2.223-1.18 4.793-1.141 7.126.105zm5.675 11.735a.125.125 0 0 1-.12.125H6.976a.126.126 0 0 1-.125-.125v-.692h9.761zm2.157-1.504H5.02c-.633 0-1.227-.594-1.227-1.22l.012-6.148c.37.403.918.692 1.715.778.492.054.96.082 1.398.082 1.637 0 2.879-.371 3.7-1.11.655-.59 1.03-1.39 1.116-2.382H12c.086.992.46 1.793 1.117 2.382.824.739 2.067 1.11 3.703 1.11.438 0 .903-.028 1.399-.082.875-.094 1.46-.426 1.86-.871l-.017 6.242c0 .613-.64 1.219-1.292 1.219zm4.25-3.102a.463.463 0 0 1-.258.25c-.27.105-.809.18-1.325.254-.187.023-.375.05-.558.082l.016-7.727v-.222a.405.405 0 0 0-.204-.352 8.512 8.512 0 0 0-4.027-1.117c-1.164-1.234-1.918-2.863-1.926-2.879a.41.41 0 0 0-.707-.059c-.926 1.375-2.644 2.434-4.976 3.07a8.072 8.072 0 0 0-5.852.872.719.719 0 0 0-.086.066.731.731 0 0 0-.078.114l-.012.035A.406.406 0 0 0 3 10.98l-.02 8.082c-.02-.003-.039-.003-.062-.007-.566-.07-1.422-.18-1.703-.305-.23-.102-.332-.363-.23-.598.921-2.132 1.128-6.148 1.175-8.351.031-1.715.5-3.324 1.352-4.656C4.785 3.156 6.418 2.246 7.848 1.62a9.68 9.68 0 0 1 7.746 0c1.219.531 3.023 1.524 4.66 3.957.894 1.34 1.41 2.957 1.48 4.688.106 2.5.414 5.886 1.278 7.824.054.117.054.25.008.367zm0 0"/>
</svg>
